Newaita-dark/apps/22/kvantum.svg

<?xml version="1.0" encoding="UTF-8"?>
<svg xmlns="http://www.w3.org/2000/svg" xmlns:xlink="http://www.w3.org/1999/xlink" width="22pt" height="22pt" viewBox="0 0 22 22" version="1.1">
<defs>
<linearGradient id="linear0" gradientUnits="userSpaceOnUse" x1="254" y1="233.5" x2="254" y2="254.666672" gradientTransform="matrix(0.0429729,0,0,0.0429729,-0.00000262285,9.239165)">
<stop offset="0" style="stop-color:rgb(0%,0%,0%);stop-opacity:0.27451;"/>
<stop offset="1" style="stop-color:rgb(0%,0%,0%);stop-opacity:0;"/>
</linearGradient>
<radialGradient id="radial0" gradientUnits="userSpaceOnUse" cx="450.908936" cy="189.579361" fx="450.908936" fy="189.579361" r="21.166656" gradientTransform="matrix(0.000000119742,-0.0537161,-0.0966889,-0.0000000698078,36.522014,43.721791)">
<stop offset="0" style="stop-color:rgb(0%,0%,0%);stop-opacity:0.313725;"/>
<stop offset="0.222222" style="stop-color:rgb(0%,0%,0%);stop-opacity:0.27451;"/>
<stop offset="1" style="stop-color:rgb(0%,0%,0%);stop-opacity:0;"/>
</radialGradient>
<radialGradient id="radial1" gradientUnits="userSpaceOnUse" cx="450.908936" cy="189.579361" fx="450.908936" fy="189.579361" r="21.166656" gradientTransform="matrix(-0.000000119742,0.0537161,0.0966889,0.0000000698078,-14.578108,-5.175142)">
<stop offset="0" style="stop-color:rgb(0%,0%,0%);stop-opacity:0.313725;"/>
<stop offset="0.222222" style="stop-color:rgb(0%,0%,0%);stop-opacity:0.27451;"/>
<stop offset="1" style="stop-color:rgb(0%,0%,0%);stop-opacity:0;"/>
</radialGradient>
<radialGradient id="radial2" gradientUnits="userSpaceOnUse" cx="450.908936" cy="189.579361" fx="450.908936" fy="189.579361" r="21.166656" gradientTransform="matrix(-0.000000119742,-0.0537161,0.0966889,-0.0000000698078,-14.578108,43.721791)">
<stop offset="0" style="stop-color:rgb(0%,0%,0%);stop-opacity:0.313725;"/>
<stop offset="0.222222" style="stop-color:rgb(0%,0%,0%);stop-opacity:0.27451;"/>
<stop offset="1" style="stop-color:rgb(0%,0%,0%);stop-opacity:0;"/>
</radialGradient>
<radialGradient id="radial3" gradientUnits="userSpaceOnUse" cx="450.908936" cy="189.579361" fx="450.908936" fy="189.579361" r="21.166656" gradientTransform="matrix(0.000000119742,0.0537161,-0.0966889,0.0000000698078,36.522013,-5.175142)">
<stop offset="0" style="stop-color:rgb(0%,0%,0%);stop-opacity:0.313725;"/>
<stop offset="0.222222" style="stop-color:rgb(0%,0%,0%);stop-opacity:0.27451;"/>
<stop offset="1" style="stop-color:rgb(0%,0%,0%);stop-opacity:0;"/>
</radialGradient>
<linearGradient id="linear1" gradientUnits="userSpaceOnUse" x1="254" y1="-168.666656" x2="254" y2="233.5" gradientTransform="matrix(0.0429729,0,0,0.0429729,0,9.239163)">
<stop offset="0" style="stop-color:rgb(47.45098%,52.54902%,79.607843%);stop-opacity:1;"/>
<stop offset="1" style="stop-color:rgb(36.078431%,41.960784%,75.294118%);stop-opacity:1;"/>
</linearGradient>
<linearGradient id="linear2" gradientUnits="userSpaceOnUse" x1="254" y1="-168.666656" x2="254" y2="233.5" gradientTransform="matrix(0.0429729,0,0,0.0429729,0,9.239163)">
<stop offset="0" style="stop-color:rgb(50.196078%,79.607843%,76.862745%);stop-opacity:1;"/>
<stop offset="1" style="stop-color:rgb(30.196078%,71.372549%,67.45098%);stop-opacity:1;"/>
</linearGradient>
<linearGradient id="linear3" gradientUnits="userSpaceOnUse" x1="243.416672" y1="154.125" x2="243.416672" y2="-84" >
<stop offset="0" style="stop-color:rgb(87.843137%,87.843137%,87.843137%);stop-opacity:1;"/>
<stop offset="1" style="stop-color:rgb(93.333333%,93.333333%,93.333333%);stop-opacity:1;"/>
</linearGradient>
</defs>
<g id="surface1">
<path style=" stroke:none;fill-rule:nonzero;fill:url(#linear0);" d="M 3.523438 19.273438 L 18.417969 19.273438 L 18.417969 20.183594 L 3.523438 20.183594 Z M 3.523438 19.273438 "/>
<path style=" stroke:none;fill-rule:nonzero;fill:url(#radial0);" d="M 18.417969 19.273438 L 20.238281 19.273438 L 20.238281 18.363281 L 18.417969 18.363281 Z M 18.417969 19.273438 "/>
<path style=" stroke:none;fill-rule:nonzero;fill:url(#radial1);" d="M 3.523438 19.273438 L 1.707031 19.273438 L 1.707031 20.183594 L 3.523438 20.183594 Z M 3.523438 19.273438 "/>
<path style=" stroke:none;fill-rule:nonzero;fill:url(#radial2);" d="M 3.523438 19.273438 L 1.707031 19.273438 L 1.707031 18.363281 L 3.523438 18.363281 Z M 3.523438 19.273438 "/>
<path style=" stroke:none;fill-rule:nonzero;fill:url(#radial3);" d="M 18.417969 19.273438 L 20.238281 19.273438 L 20.238281 20.183594 L 18.417969 20.183594 Z M 18.417969 19.273438 "/>
<path style=" stroke:none;fill-rule:nonzero;fill:url(#linear1);" d="M 2.5 1.992188 L 19.328125 1.992188 C 19.707031 1.992188 20.011719 2.296875 20.011719 2.671875 L 20.011719 18.589844 C 20.011719 18.96875 19.707031 19.273438 19.328125 19.273438 L 2.5 19.273438 C 2.125 19.273438 1.820312 18.96875 1.820312 18.589844 L 1.820312 2.671875 C 1.820312 2.296875 2.125 1.992188 2.5 1.992188 Z M 2.5 1.992188 "/>
<path style=" stroke:none;fill-rule:nonzero;fill:url(#linear2);" d="M 16.371094 1.992188 L 1.820312 14.726562 L 1.820312 18.589844 C 1.820312 18.96875 2.125 19.273438 2.5 19.273438 L 19.328125 19.273438 C 19.707031 19.273438 20.011719 18.96875 20.011719 18.589844 L 20.011719 2.671875 C 20.011719 2.296875 19.707031 1.992188 19.328125 1.992188 Z M 16.371094 1.992188 "/>
<path style=" stroke:none;fill-rule:nonzero;fill:rgb(100%,80%,50.196078%);fill-opacity:1;" d="M 20.011719 5.628906 L 5.457031 19.273438 L 19.328125 19.273438 C 19.707031 19.273438 20.011719 18.96875 20.011719 18.589844 Z M 20.011719 5.628906 "/>
<path style=" stroke:none;fill-rule:nonzero;fill:rgb(0%,0%,0%);fill-opacity:0.196078;" d="M 2.730469 19.273438 C 2.226562 19.273438 1.820312 18.867188 1.820312 18.363281 L 1.820312 18.25 C 1.820312 18.753906 2.226562 19.160156 2.730469 19.160156 L 19.101562 19.160156 C 19.605469 19.160156 20.011719 18.753906 20.011719 18.25 L 20.011719 18.363281 C 20.011719 18.867188 19.605469 19.273438 19.101562 19.273438 Z M 2.730469 19.273438 "/>
<path style=" stroke:none;fill-rule:nonzero;fill:rgb(90.196079%,90.196079%,90.196079%);fill-opacity:0.588235;" d="M 2.730469 1.992188 C 2.226562 1.992188 1.820312 2.398438 1.820312 2.902344 L 1.820312 3.015625 C 1.820312 2.511719 2.226562 2.105469 2.730469 2.105469 L 19.101562 2.105469 C 19.605469 2.105469 20.011719 2.511719 20.011719 3.015625 L 20.011719 2.902344 C 20.011719 2.398438 19.605469 1.992188 19.101562 1.992188 Z M 2.730469 1.992188 "/>
<path style=" stroke:none;fill-rule:nonzero;fill:rgb(12.941177%,12.941177%,12.941177%);fill-opacity:1;" d="M 2.5 1.925781 C 2.089844 1.925781 1.753906 2.261719 1.753906 2.671875 L 1.753906 18.589844 C 1.753906 19.003906 2.089844 19.335938 2.5 19.335938 L 19.328125 19.335938 C 19.742188 19.335938 20.074219 19.003906 20.074219 18.589844 L 20.074219 2.671875 C 20.074219 2.261719 19.742188 1.925781 19.328125 1.925781 Z M 2.5 2.054688 L 19.328125 2.054688 C 19.671875 2.054688 19.945312 2.328125 19.945312 2.671875 L 19.945312 18.589844 C 19.945312 18.933594 19.671875 19.207031 19.328125 19.207031 L 2.5 19.207031 C 2.15625 19.207031 1.882812 18.933594 1.882812 18.589844 L 1.882812 2.671875 C 1.882812 2.328125 2.15625 2.054688 2.5 2.054688 Z M 2.5 2.054688 "/>
<path style="fill-rule:nonzero;fill:url(#linear3);stroke-width:3;stroke-linecap:square;stroke-linejoin:bevel;stroke:rgb(12.941177%,12.941177%,12.941177%);stroke-opacity:1;stroke-miterlimit:4;" d="M 243.431299 -79.649289 C 240.704287 -79.649289 237.977274 -78.558484 235.977465 -76.558675 L 190.52726 -31.10847 L 190.52726 -68.104937 C 190.52726 -74.013464 185.800439 -78.740285 179.891912 -78.740285 L 169.347464 -78.740285 C 163.438938 -78.740285 158.712116 -74.013464 158.712116 -68.104937 L 158.712116 1.888379 C 157.712212 4.34269 157.712212 7.251503 158.712116 9.705814 L 158.712116 101.242528 C 158.712116 107.060154 163.438938 111.786975 169.347464 111.786975 L 179.891912 111.786975 C 185.800439 111.786975 190.52726 107.060154 190.52726 101.242528 L 190.52726 13.796333 L 192.79977 11.523823 L 269.883318 146.14733 C 272.51943 154.146566 296.335338 154.146566 298.97145 146.14733 L 362.419936 27.158693 C 365.146948 21.97737 363.601641 15.614341 358.511218 12.705528 L 349.421177 7.342404 C 344.330754 4.433591 337.876825 6.160698 334.968012 11.251121 L 282.154874 102.696934 L 216.070275 -11.746682 L 258.338966 -54.106274 C 262.520385 -58.196792 262.520385 -64.923423 258.338966 -69.013941 L 250.885133 -76.558675 C 248.794423 -78.558484 246.158311 -79.649289 243.431299 -79.649289 Z M 243.431299 -79.649289 " transform="matrix(0.0429729,0,0,0.0429729,0,9.239163)"/>
</g>
</svg>

<svg xmlns="http://www.w3.org/2000/svg" width="22pt" height="22pt" viewBox="0 0 22 22"><defs><linearGradient id="a" gradientUnits="userSpaceOnUse" x1="254" y1="233.5" x2="254" y2="254.667" gradientTransform="matrix(.04297 0 0 .04297 0 9.24)"><stop offset="0" stop-opacity=".275"/><stop offset="1" stop-opacity="0"/></linearGradient><radialGradient id="b" gradientUnits="userSpaceOnUse" cx="450.909" cy="189.579" fx="450.909" fy="189.579" r="21.167" gradientTransform="matrix(0 -.05372 -.09669 0 36.522 43.722)"><stop offset="0" stop-opacity=".314"/><stop offset=".222" stop-opacity=".275"/><stop offset="1" stop-opacity="0"/></radialGradient><radialGradient id="c" gradientUnits="userSpaceOnUse" cx="450.909" cy="189.579" fx="450.909" fy="189.579" r="21.167" gradientTransform="matrix(0 .05372 .09669 0 -14.578 -5.175)"><stop offset="0" stop-opacity=".314"/><stop offset=".222" stop-opacity=".275"/><stop offset="1" stop-opacity="0"/></radialGradient><radialGradient id="d" gradientUnits="userSpaceOnUse" cx="450.909" cy="189.579" fx="450.909" fy="189.579" r="21.167" gradientTransform="matrix(0 -.05372 .09669 0 -14.578 43.722)"><stop offset="0" stop-opacity=".314"/><stop offset=".222" stop-opacity=".275"/><stop offset="1" stop-opacity="0"/></radialGradient><radialGradient id="e" gradientUnits="userSpaceOnUse" cx="450.909" cy="189.579" fx="450.909" fy="189.579" r="21.167" gradientTransform="matrix(0 .05372 -.09669 0 36.522 -5.175)"><stop offset="0" stop-opacity=".314"/><stop offset=".222" stop-opacity=".275"/><stop offset="1" stop-opacity="0"/></radialGradient><linearGradient id="f" gradientUnits="userSpaceOnUse" x1="254" y1="-168.667" x2="254" y2="233.5" gradientTransform="matrix(.04297 0 0 .04297 0 9.24)"><stop offset="0" stop-color="#7986cb"/><stop offset="1" stop-color="#5c6bc0"/></linearGradient><linearGradient id="g" gradientUnits="userSpaceOnUse" x1="254" y1="-168.667" x2="254" y2="233.5" gradientTransform="matrix(.04297 0 0 .04297 0 9.24)"><stop offset="0" stop-color="#80cbc4"/><stop offset="1" stop-color="#4db6ac"/></linearGradient><linearGradient id="h" gradientUnits="userSpaceOnUse" x1="243.417" y1="154.125" x2="243.417" y2="-84"><stop offset="0" stop-color="#e0e0e0"/><stop offset="1" stop-color="#eee"/></linearGradient></defs><path d="M3.523 19.273h14.895v.91H3.523zm0 0" fill="url(#a)"/><path d="M18.418 19.273h1.82v-.91h-1.82zm0 0" fill="url(#b)"/><path d="M3.523 19.273H1.707v.91h1.816zm0 0" fill="url(#c)"/><path d="M3.523 19.273H1.707v-.91h1.816zm0 0" fill="url(#d)"/><path d="M18.418 19.273h1.82v.91h-1.82zm0 0" fill="url(#e)"/><path d="M2.5 1.992h16.828c.379 0 .684.305.684.68V18.59a.682.682 0 0 1-.684.683H2.5a.681.681 0 0 1-.68-.683V2.672a.68.68 0 0 1 .68-.68zm0 0" fill="url(#f)"/><path d="M16.371 1.992L1.821 14.727v3.863c0 .379.304.683.679.683h16.828a.682.682 0 0 0 .684-.683V2.672a.681.681 0 0 0-.684-.68zm0 0" fill="url(#g)"/><path d="M20.012 5.629L5.457 19.273h13.871a.682.682 0 0 0 .684-.683zm0 0" fill="#ffcc80"/><path d="M2.73 19.273a.909.909 0 0 1-.91-.91v-.113c0 .504.407.91.91.91h16.372c.503 0 .91-.406.91-.91v.113c0 .504-.407.91-.91.91zm0 0" fill-opacity=".196"/><path d="M2.73 1.992a.909.909 0 0 0-.91.91v.114c0-.504.407-.91.91-.91h16.372c.503 0 .91.406.91.91v-.114a.909.909 0 0 0-.91-.91zm0 0" fill="#e6e6e6" fill-opacity=".588"/><path d="M2.5 1.926a.749.749 0 0 0-.746.746V18.59c0 .414.336.746.746.746h16.828a.744.744 0 0 0 .746-.746V2.672a.746.746 0 0 0-.746-.746zm0 .129h16.828c.344 0 .617.273.617.617V18.59a.614.614 0 0 1-.617.617H2.5a.614.614 0 0 1-.617-.617V2.672c0-.344.273-.617.617-.617zm0 0" fill="#212121"/><path d="M243.431-79.65c-2.727 0-5.454 1.092-7.454 3.091l-45.45 45.45v-36.996a10.591 10.591 0 0 0-10.635-10.635h-10.545a10.591 10.591 0 0 0-10.635 10.635V1.888c-1 2.455-1 5.364 0 7.818v91.537c0 5.817 4.727 10.544 10.635 10.544h10.545c5.908 0 10.635-4.727 10.635-10.544V13.796l2.273-2.272 77.083 134.623c2.636 8 26.452 8 29.088 0L362.42 27.16c2.727-5.182 1.182-11.545-3.909-14.453l-9.09-5.364c-5.09-2.908-11.544-1.181-14.453 3.91l-52.813 91.445L216.07-11.747l42.269-42.36c4.181-4.09 4.181-10.816 0-14.907l-7.454-7.545c-2.09-2-4.727-3.09-7.454-3.09zm0 0" transform="matrix(.04297 0 0 .04297 0 9.24)" fill="url(#h)" stroke-width="3" stroke-linecap="square" stroke-linejoin="bevel" stroke="#212121"/></svg>
